svg/part/shorts_line.svg

<?xml version="1.0" encoding="UTF-8"?>
<svg width="24px" height="24px" viewBox="0 0 24 24" version="1.1" xmlns="http://www.w3.org/2000/svg" xmlns:xlink="http://www.w3.org/1999/xlink">
    <title>shorts_line</title>
    <g id="Icon" stroke="none" stroke-width="1" fill="none" fill-rule="evenodd">
        <g id="Part" transform="translate(-576.000000, -96.000000)">
            <g id="shorts_line" transform="translate(576.000000, 96.000000)">
                <path d="M24,0 L24,24 L0,24 L0,0 L24,0 Z M12.5934901,23.257841 L12.5819402,23.2595131 L12.5108777,23.2950439 L12.4918791,23.2987469 L12.4918791,23.2987469 L12.4767152,23.2950439 L12.4056548,23.2595131 C12.3958229,23.2563662 12.3870493,23.2590235 12.3821421,23.2649074 L12.3780323,23.275831 L12.360941,23.7031097 L12.3658947,23.7234994 L12.3769048,23.7357139 L12.4804777,23.8096931 L12.4953491,23.8136134 L12.4953491,23.8136134 L12.5071152,23.8096931 L12.6106902,23.7357139 L12.6232938,23.7196733 L12.6232938,23.7196733 L12.6266527,23.7031097 L12.609561,23.275831 C12.6075724,23.2657013 12.6010112,23.2592993 12.5934901,23.257841 L12.5934901,23.257841 Z M12.8583906,23.1452862 L12.8445485,23.1473072 L12.6598443,23.2396597 L12.6498822,23.2499052 L12.6498822,23.2499052 L12.6471943,23.2611114 L12.6650943,23.6906389 L12.6699349,23.7034178 L12.6699349,23.7034178 L12.678386,23.7104931 L12.8793402,23.8032389 C12.8914285,23.8068999 12.9022333,23.8029875 12.9078286,23.7952264 L12.9118235,23.7811639 L12.8776777,23.1665331 C12.8752882,23.1545897 12.8674102,23.1470016 12.8583906,23.1452862 L12.8583906,23.1452862 Z M12.1430473,23.1473072 C12.1332178,23.1423925 12.1221763,23.1452606 12.1156365,23.1525954 L12.1099173,23.1665331 L12.0757714,23.7811639 C12.0751323,23.7926639 12.0828099,23.8018602 12.0926481,23.8045676 L12.108256,23.8032389 L12.3092106,23.7104931 L12.3186497,23.7024347 L12.3186497,23.7024347 L12.3225043,23.6906389 L12.340401,23.2611114 L12.337245,23.2485176 L12.337245,23.2485176 L12.3277531,23.2396597 L12.1430473,23.1473072 Z" id="MingCute" fill-rule="nonzero"></path>
                <path d="M18.1528,5 C19.0761833,5 19.8717466,5.63047491 20.0926697,6.51293334 L20.1256,6.6712 L21.7923,16.6712 C21.987372,17.841536 21.1287787,18.911049 19.9663339,18.9947375 L19.8195,19 L14.5352,19 C13.9221333,19 13.346375,18.7191792 12.9689082,18.243806 L12.871,18.1094 L12,16.8028 L11.1289,18.1094 C10.7889083,18.6194333 10.2358222,18.9427569 9.63091758,18.9931023 L9.46478,19 L4.18043,19 C2.9939852,19 2.08014046,17.9773005 2.18869186,16.8169029 L2.20764,16.6712 L3.87431,6.6712 C4.02610111,5.76039667 4.77878923,5.07933049 5.68556261,5.0064676 L5.84709,5 L18.1528,5 Z M18.6528,10 L5.34709,10 L4.18043,17 L9.46478,17 L11.1679,14.4453 C11.3534,14.1671 11.6656,14 12,14 C12.3343,14 12.6466,14.1671 12.832,14.4453 L14.5352,17 L19.8195,17 L18.6528,10 Z M18.1528,7 L5.84709,7 L5.68043,8 L18.3195,8 L18.1528,7 Z" id="形状" fill="#09244B"></path>
            </g>
        </g>
    </g>
</svg>

<svg xmlns="http://www.w3.org/2000/svg" width="24" height="24"><g fill="none" fill-rule="evenodd"><path d="M24 0v24H0V0h24ZM12.593 23.258l-.011.002-.071.035-.02.004-.014-.004-.071-.035c-.01-.004-.019-.001-.024.005l-.004.01-.017.428.005.02.01.013.104.074.015.004.012-.004.104-.074.012-.016.004-.017-.017-.427c-.002-.01-.009-.017-.017-.018Zm.265-.113-.013.002-.185.093-.01.01-.003.011.018.43.005.012.008.007.201.093c.012.004.023 0 .029-.008l.004-.014-.034-.614c-.003-.012-.01-.02-.02-.022Zm-.715.002a.023.023 0 0 0-.027.006l-.006.014-.034.614c0 .012.007.02.017.024l.015-.002.201-.093.01-.008.004-.011.017-.43-.003-.012-.01-.01-.184-.092Z"/><path fill="#09244B" d="M18.153 5a2 2 0 0 1 1.94 1.513l.033.158 1.666 10a2 2 0 0 1-1.826 2.324L19.82 19h-5.285a2 2 0 0 1-1.566-.756l-.098-.135L12 16.803l-.871 1.306a2 2 0 0 1-1.498.884L9.465 19H4.18a2 2 0 0 1-1.991-2.183l.019-.146 1.666-10a2 2 0 0 1 1.812-1.665L5.847 5h12.306Zm.5 5H5.347L4.18 17h5.285l1.703-2.555a1 1 0 0 1 1.664 0L14.535 17h5.285l-1.167-7Zm-.5-3H5.847L5.68 8h12.64l-.167-1Z"/></g></svg>
